X: 208
T:The Muses
% Nottingham Music Database
P:AABBCC
S:Kevin Briggs, via EF
M:6/8
K:D
P:A
|:A/2G/2|"D"FAd FAd|"G"BAB e2d|"A7"cBc ABc|"D"d2f "A7"a2A/2G/2|
"D"FAd FAd|"G"BAB "Em"e2d|"A7"cBc ABc|"D"d3 -d2:|
P:B
|:a/2g/2|"D"faa "A"eaa|"Bm"ded "A7"cBA|"D"dcd "A7"ede|
"D"faf "A7"e3|"D"d3 "A"A3|"Em"g3 "Bm"f3|"Em"ede fed|"A7"B2c "D"d2:|
P:C
|:c|"Bm"B^AB BAB|"Em"efg "F#7"f3|"Em"egf "F#7"edc|"Bm"B2c "F#7"F3|
"Bm"B^AB BAB|"Em"efg "F#7"f3|"Em"egf "A7"edc|"D"d3 -d2:|<end>
<start>
